svg/blobs-icons/no-decorations/kitchen-scale.svg

<svg xmlns="http://www.w3.org/2000/svg" xmlns:xlink="http://www.w3.org/1999/xlink" preserveAspectRatio="xMidYMid" width="132" height="218" viewBox="0 0 132 218"><defs><style>.cls-3{fill:#142a3b}.cls-4{fill:#020403;opacity:.35}.cls-6{fill:#ff3a2f}.cls-7{fill:#fff}.cls-8{fill:#fbb713}.cls-14{fill:#020403;opacity:.25}</style></defs><g id="group-80svg"><path d="M81.022 69.804s-31.114.0-31.114.0.0-15.881.0-15.881 31.114.0 31.114.0.0 15.881.0 15.881z" id="path-1" class="cls-3" fill-rule="evenodd"/><path d="M49.908 53.923s0 3.805.0 3.805 31.114 7.609 31.114 7.609.0-11.414.0-11.414-31.114.0-31.114.0z" id="path-2" class="cls-4" fill-rule="evenodd"/><path d="M81.022 206.78s-31.114.0-31.114.0.0-15.881.0-15.881 31.114.0 31.114.0.0 15.881.0 15.881z" id="path-3" class="cls-3" fill-rule="evenodd"/><path d="M130.943 130.567c0 36.163-29.315 65.479-65.478 65.479-36.162.0-65.478-29.316-65.478-65.479.0-36.163 29.316-65.479 65.478-65.479 36.163.0 65.478 29.316 65.478 65.479z" id="path-4" class="cls-6" fill-rule="evenodd"/><path d="M89.587 187.815C88.222 187.815 86.917 187.039 86.306 185.718 85.466 183.906 86.255 181.759 88.067 180.919 103.982 173.551 115.312 158.834 118.379 141.551 118.73 139.587 120.6 138.274 122.57 138.624 124.534 138.973 125.846 140.849 125.498 142.815 122.017 162.421 109.162 179.119 91.103 187.48 90.612 187.708 90.095 187.815 89.587 187.815z" id="path-5" class="cls-7" fill-rule="evenodd"/><path d="M114.798 130.567c0 27.246-22.088 49.333-49.333 49.333-27.246.0-49.333-22.087-49.333-49.333.0-27.246 22.087-49.334 49.333-49.334 27.245.0 49.333 22.088 49.333 49.334z" id="path-6" class="cls-8" fill-rule="evenodd"/><path d="M73.074 176.095c-27.245.0-49.331-22.088-49.331-49.333.0-17.83 9.489-33.402 23.661-42.07C29.103 91.905 16.132 109.703 16.132 130.567c0 27.246 22.087 49.333 49.333 49.333C74.882 179.9 83.651 177.214 91.136 172.636 85.537 174.843 79.457 176.095 73.074 176.095z" id="path-7" class="cls-4" fill-rule="evenodd"/><path d="M75.083 138.201c0 5.31200000000001-4.306 9.618-9.618 9.618C60.153 147.819 55.846 143.513 55.846 138.201 55.846 132.888 60.153 128.581 65.465 128.581 70.777 128.581 75.083 132.888 75.083 138.201z" id="path-8" class="cls-4" fill-rule="evenodd"/><path d="M102.947 141.839s-37.267.0-37.267.0.0-41.288.0-41.288C65.68 98.555 67.298 96.936 69.294 96.936 71.29 96.936 72.909 98.555 72.909 100.551v34.058s30.038.0 30.038.0c1.997.0 3.615 1.618 3.615 3.614C106.562 140.22 104.944 141.839 102.947 141.839z" id="path-9" class="cls-4" fill-rule="evenodd"/><path d="M75.083 134.371C75.083 139.684 70.777 143.991 65.465 143.991 60.153 143.991 55.846 139.684 55.846 134.371 55.846 129.059 60.153 124.753 65.465 124.753c5.312.0 9.618 4.306 9.618 9.61800000000001z" id="path-10" class="cls-6" fill-rule="evenodd"/><path d="M31.023 30.611S65.465.015 65.465.015 99.908 30.611 99.908 30.611s-68.885.0-68.885.0z" id="path-11" class="cls-8" fill-rule="evenodd"/><path d="M65.465.015s-5.468 4.856-5.468 4.856S84.688 26.806 84.688 26.806s-49.383.0-49.383.0-4.283 3.805-4.283 3.805 68.886.0 68.886.0S65.465.015 65.465.015z" id="path-12" class="cls-14" fill-rule="evenodd"/><path d="M20.53 30.337c8.232 16.482 25.258 27.806 44.935 27.806 19.677.0 36.703-11.324 44.935-27.806H20.53z" id="path-13" class="cls-6" fill-rule="evenodd"/><path d="M49.908 50.384C49.488 50.384 49.061 50.31 48.644 50.155c-5.949-2.22-11.306-5.94-15.489-10.758C31.847 37.889 32.009 35.607 33.516 34.297 35.024 32.989 37.307 33.15 38.616 34.657 42.008 38.566 46.35 41.583 51.172 43.38 53.042 44.079 53.992 46.161 53.295 48.032 52.753 49.486 51.373 50.384 49.908 50.384z" id="path-14" class="cls-7" fill-rule="evenodd"/><path d="M95.18 30.337C88.032 44.651 74.246 55.064 57.855 57.558 60.338 57.936 62.876 58.143 65.465 58.143c19.677.0 36.704-11.324 44.935-27.806H95.18z" id="path-15" class="cls-4" fill-rule="evenodd"/><path d="M98.204 209.718S98.204 199.851 98.204 199.851s-65.478.0-65.478.0S32.726 209.718 32.726 209.718s-20.181.0-20.181.0S12.545 216.894 12.545 216.894s105.84.0 105.84.0S118.385 209.718 118.385 209.718s-20.181.0-20.181.0z" id="path-16" class="cls-3" fill-rule="evenodd"/><path d="M98.204 209.718S98.204 199.851 98.204 199.851s-65.478.0-65.478.0S32.726 203.656 32.726 203.656s57.868.0 57.868.0S90.594 213.523 90.594 213.523s20.182.0 20.182.0S110.776 216.894 110.776 216.894 118.385 216.894 118.385 216.894 118.385 209.718 118.385 209.718s-20.181.0-20.181.0z" id="path-17" class="cls-4" fill-rule="evenodd"/><path d="M106.776 138.011s-44.925.0-44.925.0.0-41.288.0-41.288c0-1.996 1.619-3.615 3.615-3.615C67.462 93.108 69.081 94.727 69.081 96.723v34.059s37.695.0 37.695.0C108.772 130.782 110.39 132.4 110.39 134.396 110.39 136.392 108.772 138.011 106.776 138.011z" id="path-18" class="cls-6" fill-rule="evenodd"/></g></svg>

<svg xmlns="http://www.w3.org/2000/svg" xmlns:xlink="http://www.w3.org/1999/xlink" preserveAspectRatio="xMidYMid" width="132" height="218" viewBox="0 0 132 218">
  <defs>
    <style>

      .cls-3 {
        fill: #142a3b;
      }

      .cls-4 {
        fill: #020403;
        opacity: 0.35;
      }

      .cls-6 {
        fill: #ff3a2f;
      }

      .cls-7 {
        fill: #ffffff;
      }

      .cls-8 {
        fill: #fbb713;
      }

      .cls-14 {
        fill: #020403;
        opacity: 0.25;
      }
    </style>
  </defs>
  <g id="group-80svg">
    <path d="M81.022,69.804 C81.022,69.804 49.908,69.804 49.908,69.804 C49.908,69.804 49.908,53.923 49.908,53.923 C49.908,53.923 81.022,53.923 81.022,53.923 C81.022,53.923 81.022,69.804 81.022,69.804 Z" id="path-1" class="cls-3" fill-rule="evenodd"/>
    <path d="M49.908,53.923 C49.908,53.923 49.908,57.728 49.908,57.728 C49.908,57.728 81.022,65.337 81.022,65.337 C81.022,65.337 81.022,53.923 81.022,53.923 C81.022,53.923 49.908,53.923 49.908,53.923 Z" id="path-2" class="cls-4" fill-rule="evenodd"/>
    <path d="M81.022,206.780 C81.022,206.780 49.908,206.780 49.908,206.780 C49.908,206.780 49.908,190.899 49.908,190.899 C49.908,190.899 81.022,190.899 81.022,190.899 C81.022,190.899 81.022,206.780 81.022,206.780 Z" id="path-3" class="cls-3" fill-rule="evenodd"/>
    <path d="M130.943,130.567 C130.943,166.730 101.628,196.046 65.465,196.046 C29.303,196.046 -0.013,166.730 -0.013,130.567 C-0.013,94.404 29.303,65.088 65.465,65.088 C101.628,65.088 130.943,94.404 130.943,130.567 Z" id="path-4" class="cls-6" fill-rule="evenodd"/>
    <path d="M89.587,187.815 C88.222,187.815 86.917,187.039 86.306,185.718 C85.466,183.906 86.255,181.759 88.067,180.919 C103.982,173.551 115.312,158.834 118.379,141.551 C118.730,139.587 120.600,138.274 122.570,138.624 C124.534,138.973 125.846,140.849 125.498,142.815 C122.017,162.421 109.162,179.119 91.103,187.480 C90.612,187.708 90.095,187.815 89.587,187.815 Z" id="path-5" class="cls-7" fill-rule="evenodd"/>
    <path d="M114.798,130.567 C114.798,157.813 92.710,179.900 65.465,179.900 C38.219,179.900 16.132,157.813 16.132,130.567 C16.132,103.321 38.219,81.233 65.465,81.233 C92.710,81.233 114.798,103.321 114.798,130.567 Z" id="path-6" class="cls-8" fill-rule="evenodd"/>
    <path d="M73.074,176.095 C45.829,176.095 23.743,154.007 23.743,126.762 C23.743,108.932 33.232,93.360 47.404,84.692 C29.103,91.905 16.132,109.703 16.132,130.567 C16.132,157.813 38.219,179.900 65.465,179.900 C74.882,179.900 83.651,177.214 91.136,172.636 C85.537,174.843 79.457,176.095 73.074,176.095 Z" id="path-7" class="cls-4" fill-rule="evenodd"/>
    <path d="M75.083,138.201 C75.083,143.513 70.777,147.819 65.465,147.819 C60.153,147.819 55.846,143.513 55.846,138.201 C55.846,132.888 60.153,128.581 65.465,128.581 C70.777,128.581 75.083,132.888 75.083,138.201 Z" id="path-8" class="cls-4" fill-rule="evenodd"/>
    <path d="M102.947,141.839 C102.947,141.839 65.680,141.839 65.680,141.839 C65.680,141.839 65.680,100.551 65.680,100.551 C65.680,98.555 67.298,96.936 69.294,96.936 C71.290,96.936 72.909,98.555 72.909,100.551 C72.909,100.551 72.909,134.609 72.909,134.609 C72.909,134.609 102.947,134.609 102.947,134.609 C104.944,134.609 106.562,136.227 106.562,138.223 C106.562,140.220 104.944,141.839 102.947,141.839 Z" id="path-9" class="cls-4" fill-rule="evenodd"/>
    <path d="M75.083,134.371 C75.083,139.684 70.777,143.991 65.465,143.991 C60.153,143.991 55.846,139.684 55.846,134.371 C55.846,129.059 60.153,124.753 65.465,124.753 C70.777,124.753 75.083,129.059 75.083,134.371 Z" id="path-10" class="cls-6" fill-rule="evenodd"/>
    <path d="M31.023,30.611 C31.023,30.611 65.465,0.015 65.465,0.015 C65.465,0.015 99.908,30.611 99.908,30.611 C99.908,30.611 31.023,30.611 31.023,30.611 Z" id="path-11" class="cls-8" fill-rule="evenodd"/>
    <path d="M65.465,0.015 C65.465,0.015 59.997,4.871 59.997,4.871 C59.997,4.871 84.688,26.806 84.688,26.806 C84.688,26.806 35.305,26.806 35.305,26.806 C35.305,26.806 31.022,30.611 31.022,30.611 C31.022,30.611 99.908,30.611 99.908,30.611 C99.908,30.611 65.465,0.015 65.465,0.015 Z" id="path-12" class="cls-14" fill-rule="evenodd"/>
    <path d="M20.530,30.337 C28.762,46.819 45.788,58.143 65.465,58.143 C85.142,58.143 102.168,46.819 110.400,30.337 C110.400,30.337 20.530,30.337 20.530,30.337 Z" id="path-13" class="cls-6" fill-rule="evenodd"/>
    <path d="M49.908,50.384 C49.488,50.384 49.061,50.310 48.644,50.155 C42.695,47.935 37.338,44.215 33.155,39.397 C31.847,37.889 32.009,35.607 33.516,34.297 C35.024,32.989 37.307,33.150 38.616,34.657 C42.008,38.566 46.350,41.583 51.172,43.380 C53.042,44.079 53.992,46.161 53.295,48.032 C52.753,49.486 51.373,50.384 49.908,50.384 Z" id="path-14" class="cls-7" fill-rule="evenodd"/>
    <path d="M95.180,30.337 C88.032,44.651 74.246,55.064 57.855,57.558 C60.338,57.936 62.876,58.143 65.465,58.143 C85.142,58.143 102.169,46.819 110.400,30.337 C110.400,30.337 95.180,30.337 95.180,30.337 Z" id="path-15" class="cls-4" fill-rule="evenodd"/>
    <path d="M98.204,209.718 C98.204,209.718 98.204,199.851 98.204,199.851 C98.204,199.851 32.726,199.851 32.726,199.851 C32.726,199.851 32.726,209.718 32.726,209.718 C32.726,209.718 12.545,209.718 12.545,209.718 C12.545,209.718 12.545,216.894 12.545,216.894 C12.545,216.894 118.385,216.894 118.385,216.894 C118.385,216.894 118.385,209.718 118.385,209.718 C118.385,209.718 98.204,209.718 98.204,209.718 Z" id="path-16" class="cls-3" fill-rule="evenodd"/>
    <path d="M98.204,209.718 C98.204,209.718 98.204,199.851 98.204,199.851 C98.204,199.851 32.726,199.851 32.726,199.851 C32.726,199.851 32.726,203.656 32.726,203.656 C32.726,203.656 90.594,203.656 90.594,203.656 C90.594,203.656 90.594,213.523 90.594,213.523 C90.594,213.523 110.776,213.523 110.776,213.523 C110.776,213.523 110.776,216.894 110.776,216.894 C110.776,216.894 118.385,216.894 118.385,216.894 C118.385,216.894 118.385,209.718 118.385,209.718 C118.385,209.718 98.204,209.718 98.204,209.718 Z" id="path-17" class="cls-4" fill-rule="evenodd"/>
    <path d="M106.776,138.011 C106.776,138.011 61.851,138.011 61.851,138.011 C61.851,138.011 61.851,96.723 61.851,96.723 C61.851,94.727 63.470,93.108 65.466,93.108 C67.462,93.108 69.081,94.727 69.081,96.723 C69.081,96.723 69.081,130.782 69.081,130.782 C69.081,130.782 106.776,130.782 106.776,130.782 C108.772,130.782 110.390,132.400 110.390,134.396 C110.390,136.392 108.772,138.011 106.776,138.011 Z" id="path-18" class="cls-6" fill-rule="evenodd"/>
  </g>
</svg>
